X: 551
T:Fiddle Bill
T:Canada's Fiddling Day Two Step
R: Two step
C: Kelli Trottier
M:4/4
L:1/4
K:G
"G"d2 "Em"g3/g/ | "Am"ec "D"AF | "G"G2 ("C"G3/A/) |: "G"GDGA |"G" B2 B A/B/| cBAG | "C"Ac (E2 | 
"Am"E) (A2G) | "D" F3/G/ FE | "D7"DcDc | "G"B3/c/dB | "D7"ADdc | "G" B2BA/B/ | cBAG | 
"C"Ac(E2 | "Am"E)(A2G) | "D"F3/G/FE | "D7"DcEF | "G"G2 (G3/F/) | GBdg | "D"f2 (f3/g/) | 
fdef | "C" gfed | "G"B2 (AB) | "C"c3/B/ce | "G" d3/^c/dg | "Am"f3/g/ag | "D"fdeg | 
f2 (f3/g/) | fdef | "C"gfed | "G"B2 (AG) | "C"EcEc | "D"BAEF | "G"G2 (G3/A/):|
[2"G Last Time"G2G2 | "G"d2 "Em"g3/g/ | "C"ec"Am"BA | "D"d2 "D7"f2 | "G"g4]


